src/components/00-materials/images-raw/Hotel Reception Woman.svg

<svg width="96" height="96" viewBox="0 0 96 96" fill="none" xmlns="http://www.w3.org/2000/svg">
<path d="M77.16 58.9999C77.16 58.9999 84.6 58.6799 87.23 67.7599C87.23 67.7599 87.56 70.1699 88.54 70.3799H65.78C66.78 70.1699 67.1 67.7599 67.1 67.7599C69.72 58.6499 77.16 58.9999 77.16 58.9999ZM77.16 58.9999V55.9099" stroke="#00008F" stroke-width="2" stroke-linecap="round" stroke-linejoin="round"/>
<path d="M77.16 55.9099C78.9991 55.9099 80.49 55.2383 80.49 54.4099C80.49 53.5815 78.9991 52.9099 77.16 52.9099C75.3209 52.9099 73.83 53.5815 73.83 54.4099C73.83 55.2383 75.3209 55.9099 77.16 55.9099Z" stroke="#00008F" stroke-width="2" stroke-miterlimit="10"/>
<path d="M65.56 73.97L64.25 79.01H90.95L89.64 73.97H65.56ZM36.74 30.28H27.54C24.8745 30.4056 22.3389 31.468 20.38 33.28V40.41C20.38 47.15 24.47 52.62 31.63 52.62C38.79 52.62 42.87 47.2 42.87 40.46V27.23C42.87 27.23 39.8 30.28 36.74 30.28Z" stroke="#00008F" stroke-width="2" stroke-linecap="round" stroke-linejoin="round"/>
<path d="M14.25 28.5199C14.2539 26.6084 14.6345 24.7163 15.37 22.9519C16.1054 21.1874 17.1814 19.5852 18.5363 18.2368C19.8913 16.8883 21.4986 15.8201 23.2666 15.0931C25.0345 14.3661 26.9284 13.9947 28.84 13.9999H31.07C33.6435 13.9587 36.1826 14.5948 38.4327 15.8445C40.6828 17.0941 42.5648 18.9134 43.89 21.1199C44.5715 21.0729 45.2551 21.1721 45.8951 21.4109C46.5351 21.6498 47.1165 22.0228 47.6005 22.5049C48.0845 22.9869 48.4597 23.567 48.7011 24.206C48.9425 24.845 49.0444 25.5283 49 26.2099V44.4499C48.9847 45.891 49.3561 47.3097 50.0755 48.5584C50.7948 49.8072 51.8358 50.8402 53.09 51.5499C52.4519 52.8092 51.5266 53.9007 50.3888 54.7363C49.2509 55.5719 47.9325 56.1281 46.54 56.3599L44.91 56.6299M24.47 50.2199V55.7999M24.47 55.7999L16.19 57.0699C13.0927 57.5345 10.2649 59.0949 8.22058 61.4677C6.1763 63.8405 5.05126 66.868 5.04999 69.9999V74.7499C5.05006 75.6992 5.38193 76.6186 5.9882 77.349C6.59446 78.0795 7.43698 78.575 8.36999 78.7499L19.26 80.8399C27.4295 82.4 35.8205 82.4 43.99 80.8399L54.88 78.7499C55.813 78.575 56.6555 78.0795 57.2618 77.349C57.868 76.6186 58.1999 75.6992 58.2 74.7499V69.9999C58.1991 66.8695 57.0754 63.8431 55.0332 61.4706C52.9909 59.098 50.1655 57.5366 47.07 57.0699L38.78 55.7999V50.1699M24.47 55.7999L31.63 74.0299" stroke="#00008F" stroke-width="2" stroke-linecap="round" stroke-linejoin="round"/>
<path d="M21.64 56.23L16.3 67.93L23.45 65.89L31.63 74.03" stroke="#00008F" stroke-width="2" stroke-linecap="round" stroke-linejoin="round"/>
<path d="M18.34 56.63L16.72 56.36C15.3257 56.1296 14.0052 55.574 12.8655 54.7384C11.7259 53.9027 10.799 52.8104 10.16 51.55C11.4142 50.8402 12.4552 49.8072 13.1745 48.5585C13.8938 47.3097 14.2652 45.891 14.25 44.45V28.21M41.62 56.23L46.96 67.93L39.8 65.89L31.63 74.03L38.78 55.8L41.62 56.23ZM16.29 74.9V80.26V74.9ZM46.96 74.9V80.26V74.9Z" stroke="#00008F" stroke-width="2" stroke-linecap="round" stroke-linejoin="round"/>
</svg>

<svg width="96" height="96" viewBox="0 0 96 96" fill="none" xmlns="http://www.w3.org/2000/svg"><path d="M77.16 59s7.44-.32 10.07 8.76c0 0 .33 2.41 1.31 2.62H65.78c1-.21 1.32-2.62 1.32-2.62C69.72 58.65 77.16 59 77.16 59zm0 0v-3.09" stroke="#00008F" stroke-width="2" stroke-linecap="round" stroke-linejoin="round"/><path d="M77.16 55.91c1.84 0 3.33-.672 3.33-1.5s-1.49-1.5-3.33-1.5-3.33.672-3.33 1.5 1.49 1.5 3.33 1.5z" stroke="#00008F" stroke-width="2" stroke-miterlimit="10"/><path d="M65.56 73.97l-1.31 5.04h26.7l-1.31-5.04H65.56zM36.74 30.28h-9.2a11.33 11.33 0 00-7.16 3v7.13c0 6.74 4.09 12.21 11.25 12.21s11.24-5.42 11.24-12.16V27.23s-3.07 3.05-6.13 3.05z" stroke="#00008F" stroke-width="2" stroke-linecap="round" stroke-linejoin="round"/><path d="M14.25 28.52A14.549 14.549 0 0128.84 14h2.23a14.68 14.68 0 0112.82 7.12A4.792 4.792 0 0149 26.21v18.24a8.059 8.059 0 004.09 7.1 9.001 9.001 0 01-6.55 4.81l-1.63.27m-20.44-6.41v5.58m0 0l-8.28 1.27A13.08 13.08 0 005.05 70v4.75a4.07 4.07 0 003.32 4l10.89 2.09a65.92 65.92 0 0024.73 0l10.89-2.09a4.07 4.07 0 003.32-4V70a13.08 13.08 0 00-11.13-12.93l-8.29-1.27v-5.63M24.47 55.8l7.16 18.23" stroke="#00008F" stroke-width="2" stroke-linecap="round" stroke-linejoin="round"/><path d="M21.64 56.23l-5.34 11.7 7.15-2.04 8.18 8.14M18.34 56.63l-1.62-.27a9 9 0 01-6.56-4.81 8.06 8.06 0 004.09-7.1V28.21m27.37 28.02l5.34 11.7-7.16-2.04-8.17 8.14 7.15-18.23 2.84.43zM16.29 74.9v5.36-5.36zm30.67 0v5.36-5.36z" stroke="#00008F" stroke-width="2" stroke-linecap="round" stroke-linejoin="round"/></svg>
